X: 5
T: Missa Adieu mes amours / Agnus Dei
N: Derived from Obr1001e-Missa_Adieu_mes_amours-Agnus.krn
C: Jacob Obrecht
%%abc-version 2.0
%%abcx-abcm2ps-target-version 5.9.1 (29 Sep 2008)
%%abc-creator hum2abc beta
%%abcx-conversion-date 2019/02/17 07:23:44
%%abc-edited-by Jesse Rodin
%%abc-edited-by Jesse Rodin 2013
%%abcx-initial-encoding-date 2013/05/07/
%%humdrum-veritas 3825111974
%%humdrum-veritas-data 2340987223
%%linebreak <none>
%%barnumbers 0
L: 1/4
M: 3/1
Q: 1/2=120
%%staves [1 2 3 4]
V: 1 clef=treble
V: 2 clef=treble-8
V: 3 clef=treble-8
V: 4 clef=bass
K: F
[V:1] z12 | 
[V:2] G4B4A4 | 
[V:3] z12 | 
[V:4] z12 | 
[V:1] G4B4A4 | 
[V:2] G4d6c2- | 
[V:3] z12 | 
[V:4] z12 | 
[V:1] G4d6c2- | 
[V:2] c2B4AGF4 | 
[V:3] z12 | 
[V:4] z12 | 
[V:1] c2B4AGF4 | 
[V:2] z4G4B4 | 
[V:3] z12 | 
[V:4] z12 | 
[V:1] z4G4B4 | 
[V:2] A4G4d4- | 
[V:3] z12 | 
[V:4] z12 | 
[V:1] A4G4d4- | 
[V:2] d2c4B4AG | 
[V:3] z12 | 
[V:4] z12 | 
[V:1] d2c2B3A/G/B2A2 | 
[V:2] B2A2G2d3ef2 | 
[V:3] z12 | 
[V:4] z12 | 
[V:1] G2c3BAGA4 | 
[V:2] g2e3dg4f2 | 
[V:3] z12 | 
[V:4] z12 | 
[V:1] G2A3G^FEF4 | 
[V:2] e2c3BAGA4 | 
[V:3] z12 | 
[V:4] z12 | 
[V:1] G8z4 | 
[V:2] G8z4 | 
[V:3] z4z4G2B2 | 
[V:4] z4z4z2D,2 | 
[V:1] z2G2B2A2G2d2 | 
[V:2] z12 | 
[V:3] A2G2d2zc2BA2 | 
[V:4] F,2E,2D,2A,2zG,2F, | 
[V:1] zc2BA2G2F2z2 | 
[V:2] z12 | 
[V:3] G2F2z2G2B2A2 | 
[V:4] E,2D,2C,2z2D,2F,2 | 
[V:1] G2B2A2GB2A/G/^F2 | 
[V:2] z4z4z2d2- | 
[V:3] G2d2zc2BG2A2 | 
[V:4] E,2D,2A,2zG,2E,D,2 | 
[V:1] G4B4A4 | 
[V:2] d2B3AG4^F2 | 
[V:3] G8z4 | 
[V:4] G,,2G,3F,G,2D,4 | 
[V:1] G2B4AG^F4 | 
[V:2] G4d2d3cA2 | 
[V:3] G4B4A4 | 
[V:4] G,,2G,3F,G,2D,4 | 
[V:1] G4A2B4AG | 
[V:2] B3A/B/A2G2G3F/E/ | 
[V:3] G4d8- | 
[V:4] G,,2G,2F,2G,2B,3A,/B,/ | 
[V:1] F2G2B3A/B/A2G2 | 
[V:2] D2G2z4z4 | 
[V:3] d12 | 
[V:4] A,2G,4F,E,F,2G,2 | 
[V:1] B2AGF2G3FF2- | 
[V:2] B3A/B/A2G2c2d2 | 
[V:3] d6c3AB2 | 
[V:4] G,,A,,B,,C,D,2E,2F,2B,,2 | 
[V:1] F2E2F6G2 | 
[V:2] c4A6B2 | 
[V:3] G4F8 | 
[V:4] C,4D,2D,4C,B,, | 
[V:1] A4B2G4FE | 
[V:2] c4d3c/d/_e2d2- | 
[V:3] z4z4G4 | 
[V:4] A,,4G,,8 | 
[V:1] D2d3cA2B2AG | 
[V:2] dcBA/G/F4z2G2 | 
[V:3] B4A4G4 | 
[V:4] G,4D,2F,2E,4 | 
[V:1] F4F4z4 | 
[V:2] A2B4AGA2D2 | 
[V:3] d8c4 | 
[V:4] D,2B,,3C,D,E,F,3G,/A,/ | 
[V:1] z12 | 
[V:2] G2F4G2D4 | 
[V:3] B2c3BAGA4 | 
[V:4] B,2A,3G,G,4^F,2 | 
[V:1] G4B4A4 | 
[V:2] d8z2d2- | 
[V:3] G2B3AG4^F2 | 
[V:4] G,2G,,3A,,B,,2C,2D,2 | 
[V:1] G4d8 | 
[V:2] d2_e2d2B3cde | 
[V:3] G8B4 | 
[V:4] G,,2C,2B,,2G,,4G,2 | 
[V:1] c4B2c3BAG | 
[V:2] f3e/f/g6fe | 
[V:3] c4d2_e3dcB | 
[V:4] A,3G,/A,/G,2C,2_E,4 | 
[V:1] B2A3GG4^F2 | 
[V:2] f6d3cA2 | 
[V:3] d4c2B2A4 | 
[V:4] D,2F,4G,2D,4 | 
[V:1] G12 ||  
[V:2] B3cd8 ||  
[V:3] G12 ||  
[V:4] G,,12 ||  
[V:1]  [K:F] [K:clef=treble][M:2/1]z8 | 
[V:2]  [K:F] [K:clef=treble-8][M:2/1]G6c2- | 
[V:3]  [K:F] [K:clef=treble-8][M:2/1]G4E4 | 
[V:4]  [K:F] [K:clef=bass][M:2/1]z8 | 
[V:1] z8 | 
[V:2] c2=BA=B4 | 
[V:3] F4G4 | 
[V:4] z8 | 
[V:1] C6F2- | 
[V:2] c6B2 | 
[V:3] C8- | 
[V:4] z8 | 
[V:1] F2EDE4 | 
[V:2] A2GFG4 | 
[V:3] C8 | 
[V:4] z8 | 
[V:1] F4z4 | 
[V:2] F8 | 
[V:3] D6E2 | 
[V:4] z8 | 
[V:1] D6G2- | 
[V:2] A4B2d2- | 
[V:3] F4G4 | 
[V:4] z8 | 
[V:1] G2^FEF4 | 
[V:2] d2cBc4 | 
[V:3] A8 | 
[V:4] z8 | 
[V:1] G6c2- | 
[V:2] d4z4 | 
[V:3] G4E4 | 
[V:4] z8 | 
[V:1] c2=BA=B4 | 
[V:2] d8 | 
[V:3] F4G4 | 
[V:4] z8 | 
[V:1] c6Bc | 
[V:2] _e4_e4 | 
[V:3] C8 | 
[V:4] z8 | 
[V:1] B2A3GFE | 
[V:2] d6c2 | 
[V:3] D6E2 | 
[V:4] z8 | 
[V:1] D4z4 | 
[V:2] B2AGA4 | 
[V:3] G4F4 | 
[V:4] z8 | 
[V:1] G6F2 | 
[V:2] GABcd_ed2- | 
[V:3] G8- | 
[V:4] z8 | 
[V:1] E2DCD4 | 
[V:2] d2c4=B2 | 
[V:3] G8 | 
[V:4] z8 | 
[V:1] C2E3DC2- | 
[V:2] c4e4 | 
[V:3] z8 | 
[V:4] z8 | 
[V:1] C2=B,2C4 | 
[V:2] d4c2e2- | 
[V:3] G4C4 | 
[V:4] z8 | 
[V:1] G4F4 | 
[V:2] edc4=B2 | 
[V:3] E4D4 | 
[V:4] z8 | 
[V:1] E2E3DCB, | 
[V:2] c6A2- | 
[V:3] C8 | 
[V:4] z8 | 
[V:1] A,2A3Bc2- | 
[V:2] AGF4ED | 
[V:3] D6E2 | 
[V:4] z8 | 
[V:1] c2=BA=B4 | 
[V:2] C2E2D4 | 
[V:3] G4F4 | 
[V:4] z8 | 
[V:1] c2G3FE2- | 
[V:2] C2E3DC2- | 
[V:3] G8- | 
[V:4] z8 | 
[V:1] E2DCD4 | 
[V:2] C2=B,A,=B,4 | 
[V:3] G8 | 
[V:4] z8 | 
[V:1] C4z4 | 
[V:2] C4z2G2- | 
[V:3] G4C4 | 
[V:4] z8 | 
[V:1] C4D2F2- | 
[V:2] G2FEF4 | 
[V:3] E4D4 | 
[V:4] z8 | 
[V:1] F2EDE4 | 
[V:2] G6A2- | 
[V:3] C8 | 
[V:4] z8 | 
[V:1] A,6C2- | 
[V:2] AGF4ED | 
[V:3] D6E2 | 
[V:4] z8 | 
[V:1] C2B,A,B,4 | 
[V:2] C2E2D4 | 
[V:3] G4F4 | 
[V:4] z8 | 
[V:1] C4_E4 | 
[V:2] C4z2c2- | 
[V:3] G8- | 
[V:4] z8 | 
[V:1] D6_EF | 
[V:2] c2BAB2_E2 | 
[V:3] G8 | 
[V:4] z8 | 
[V:1] G6FG | 
[V:2] _E4z2c2- | 
[V:3] G4E4 | 
[V:4] z8 | 
[V:1] A4G4 | 
[V:2] c2BAB2_E2 | 
[V:3] F4G4 | 
[V:4] z8 | 
[V:1] z2c3BAG | 
[V:2] _E3FG2A2- | 
[V:3] C8 | 
[V:4] z8 | 
[V:1] F4G4 | 
[V:2] A2B4c2- | 
[V:3] D6E2 | 
[V:4] z8 | 
[V:1] A4B4 | 
[V:2] c2d4e2- | 
[V:3] F4G4 | 
[V:4] z8 | 
[V:1] c6BA | 
[V:2] e2f3ec2 | 
[V:3] A8 | 
[V:4] z8 | 
[V:1] B2G3ABc | 
[V:2] d2e3cg2- | 
[V:3] G4E4 | 
[V:4] z8 | 
[V:1] d2c4=B2 | 
[V:2] g2fed4 | 
[V:3] F4G4 | 
[V:4] z8 | 
[V:1] c3BAGA2- | 
[V:2] z2c3BAG | 
[V:3] C8 | 
[V:4] z8 | 
[V:1] AGFED2B2- | 
[V:2] F2D2F2G2 | 
[V:3] D6E2 | 
[V:4] z8 | 
[V:1] B2AGA4 | 
[V:2] E4D4 | 
[V:3] G4^F4 | 
[V:4] z8 | 
[V:1] G2B4AG | 
[V:2] d6B2- | 
[V:3] G8 | 
[V:4] z8 | 
[V:1] F2G4^F2 | 
[V:2] B2AGA4 | 
[V:3] z8 | 
[V:4] z8 | 
[V:1] G8 |]  
[V:2] G8 |]  
[V:3] G8 |]  
[V:4] z8 |]  



